X:1
T:Title
%%score { ( 1 4 ) | ( 2 3 ) }
L:1/8
M:4/4
K:F
V:1 treble nm="Grand Piano"
V:4 treble 
V:2 bass 
V:3 bass 
V:1
 z4 z2 z[Q:1/4=84] C | [A,F]FG_A =A3 A | [DB]FBF [CA]3 [CA] | [CA]GG^F G2 D2 | %4
[M:7/8] G-G-G- G- G3 |[M:1/8] C |[M:4/4] [A,F]FG_A =A3 A | [DB]FBF [CA]3 A | AGGG A2 =B2 | c4 B4 | %10
[M:6/8][Q:1/4=99] A3 z3 | d3 z3 | c3 z3 | B6 | [EB]3 z3 | [EBe]3 z3 | [Ec]3 z3 | A6 | A3 z3 | %19
 d3 z3 | [^Fd]3 z3 | G-[G-g][G-f] [G-e][G-d][GB] | f3 z3 | c2 A c2 [DFB] | [FA]3 [EG]3 | %25
[M:5/8] [A,CF]-[A,CF]- [A,CF]3 |] %26
V:2
 z8 | z A,B,=B, C3 C | z D^CC [F,,F,]4 | z B,B,B, B,2 B,2 | %4
[M:7/8] [C,E,B,]-[C,E,B,]-[C,E,B,]- [C,E,B,]- [C,E,B,]3 |[M:1/8] B, |[M:4/4] z A,B,B, C3 C | %7
 z D^CC z2 z[K:treble] =C | [G,CE][G,CE][G,CE][G,CE] [G,DF]2 [G,DF]2 | [C,C]8 | %10
[M:6/8][K:treble] [CF]CC [CF]2- [=A,CF] | [FA]FF [A,CF]3 | [FA]FF [_A,F_A]3 | %13
 [G,EG][K:bass][C,G,B,][C,G,B,] [C,G,B,][C,G,B,][C,G,B,] | [C,G,B,][C,G,][C,G,] [C,G,B,]3 | %15
 [C,G,B,][C,G,][C,G,] [C,G,B,]3 | [C,G,B,]C,C, C,3 | F,,[C,F,A,][C,F,A,] [C,F,A,][C,F,A,][C,F,A,] | %18
 [CF]CC [CF]2- [=A,CF] | [FA]FF [A,CF]3 | [D,A,C][D,A,][D,A,] [D,A,D]3 | %21
 [G,B,D][K:treble][G,B,D][G,B,D] [G,B,D]3 | [=B,DF_A][B,DF][B,DF] [B,DFA]2 [B,DFA] | %23
 [CFA]2[K:bass] [^F,C_E] [G,B,D]2 [B,,B,] | [C,C]3 [C,B,]3 |[M:5/8] [F,,F,]-[F,,F,]- [F,,F,]3 |] %26
V:3
 x8 | [F,,F,]8 | [B,,F,]4 z4 | [G,,F,]8 |[M:7/8] x7 |[M:1/8] x |[M:4/4] [F,,F,]8 | %7
 [B,,F,]4 [F,,F,]4[K:treble] | x8 | x8 |[M:6/8][K:treble] A,3 ._A,3 | D3 z3 | A,3 z3 | %13
 x[K:bass] x5 | x6 | x6 | x6 | x6 | A,3 ._A,3 | D3 z3 | x6 | x[K:treble] x5 | x6 | x2[K:bass] x4 | %24
 x6 |[M:5/8] x5 |] %26
V:4
 x8 | x8 | x8 | x8 |[M:7/8] x7 |[M:1/8] x |[M:4/4] x8 | x8 | x8 | E8 |[M:6/8] z FF _A2 =A | %11
 z AA A3 | z AA =B3 | z CD EFG | z B,B, [EA]2 [EB] | z B,B, [EBd]3 | z [G,B,][G,B,] [G,B,EG]3 | %17
 z CD EFG | z FF _A2 =A | z AA A3 | z CC [^FA]3 | B6 | z _AA e2 d | x6 | x6 |[M:5/8] x5 |] %26

